!!!COM: Unknown
!!!CDT: Unknown
!!!OTL: National Anthem, Burkina Faso
!!!ENC: Davis, Matthew J.
!!Vocal Line Only
**kern
*clefG2
*k[b-]
*F:
*M3/4
=1-
4c
==|:2
!Repeat to Measure 10, (the second ending)
4.f
8g
8.a
16b-
=3
8.a
16g
4f
4c
=4
4.g
8g
8.f
16g
=5
2a
8.a
16b-
=6
4.cc
8dd
8.cc
16a
=7
8.f
16e
4d
4c
=8
4.g
8g
8.e
16c
=9
!First Ending
2f
4c
==:|10
!Second Ending
2.f
4g
=11
8g
8g
4g
8g
8g
8a
8g
=12
8f
8e
4d
8c
8c
8e
8f
=13
4g
8g
8g
4g
8f
8g
=14
2.a
4a
=15
8a
8a
4a
8a
8b-
8a
8g
=16
8f
8g
4f
8c
8c
4f
=17
8e
8f
4g
8f
8g
8a
8bn
=18
8cc
12cc
12cc
12cc
8cc
8cc
4cc
4f
=19
2b-
4cc
8.dd
16dd
=20
2dd
4dd
8.cc
16dd
=21
2cc
4b-
8.a
16f
=22
2.g
8.a
16b-
==||23
*M3/4
4.cc
8dd
8.cc
16a
=24
8.f
16e
4d
4c
=25
4.g
8g
8.f
16g
==||26
*M4/4
2.a
4f
=27
2b-
4cc
8.dd
16dd
=28
2dd
4dd
8.cc
16dd
=29
2cc
4b-
8.a
16f
=30
[2g
8g]
8dd
8cc
8a
=31
[2f
8f]
8dd
8cc
8a
=32
4f
4b-
4.a
8g
=33
2.cc
4r
=34
8r
8dd
8cc
8a
[2f
=35
8f]
8dd
8cc
8a
4f
4b-
=36
4.a
8a
4.g
8g
=37
2.f
==|!
*-
